X:7166
T:The Old Woman who Carried a Broom
O:england
M:6/8
C:
S:Bacon (MDT)
N:
A:Brackley
R:Jig
%P:A/2.(AB)$^4$.A
P:A.(AB)4.A
L:1/8
K:A
I:speed 300
Q:C3=96
P:A
|:E|ABc cde|edc B2 A|dcd Bed|cAA A2:|\
P:B
a|fga fga|fga gfe|efe efe|edc B2 \
B|ABc cde|edc B2 A|dcd Bed|cAA A2||


